X: 1
T: Dunroamin' Jig
C: Ralph Page
R: jig
Z: 2012 John Chambers <jc:trillian.mit.edu>
B: Northern Junket, v.8, #12,  July 1967
N: __
M: 6/8
L: 1/8
K: Bb
F |\
B2d ^c2d | B2d ^c2d | B2d g2f | fed e2F |\
F2c =B2c | F2c =B2c | a2g f2e | dec B2 :|
|: df |\
b2b a2a | gab fdB | F2e ede | F2d dcd |\
b2b a2a | gab fdB | F2c edc | B3- B2 :|
